X: 4156
T: JENNY GEDDES
R: Reel.
%R: reel
B: James Kerr "Merry Melodies" v.4 p.18 #156
Z: 2016 John Chambers <jc:trillian.mit.edu>
M: C|
L: 1/8
K: Bb
|:\
B/B/B B2 AcAF | B/B/B B2 cedc |\
BcdB GBeg | fdce (dB)B2 ::\
f/f/f f2 dfdB |
g/g/g g2 egec |\
[1 f/f/f f2 dfdB | ecdB AcAF :|\
[2 dBec fdge | dBcA B2B,2 |]

%%sep 1 1 500
%%sep 1 1 500
%%center IRISH REELS

%%sep 1 1 500
%%sep 1 1 500

